symbolic/24x24/apps/shadow-beta.svg

<svg xmlns="http://www.w3.org/2000/svg" width="24" height="24" version="1.1">
 <path style="fill:#e4e4e4" d="M 12,2 C 6.4771525,2 2,6.4771525 2,12 2.00499,14.794744 3.179263,17.459883 5.2382812,19.349609 5.0818045,18.916797 5.0011944,18.460228 5,18 c 0,-2.209139 1.790861,-4 4,-4 2.209139,0 4,1.790861 4,4 -0.0023,1.759597 -1.154189,3.311056 -2.837891,3.822266 C 10.767947,21.938065 11.383199,21.997563 12,22 17.522847,22 22,17.522847 22,12 22,6.4771525 17.522847,2 12,2 Z"/>
 <path style="fill:#263547" d="m 12,4 c 4.441967,0 8,3.5580328 8,8 0,3.459953 -2.18456,6.32367 -5.238281,7.447266 C 14.881347,18.976554 14.999345,18.502711 15,18.001953 A 2.0002,2.0002 0 0 0 15,18 C 15,14.709981 12.290019,12 9,12 7.1652678,12 5.5713604,12.888911 4.4667969,14.205078 4.2538023,13.482933 4.001745,12.768005 4,12 v -0.002 c 0,0 0,-0.002 0,-0.002 C 4.0021386,7.5560874 7.5593682,4 12,4 Z"/>
 <path style="opacity:0.2;fill:#ffffff" d="M 12 2 C 6.4771525 2 2 6.4771525 2 12 C 2.0001428 12.079975 2.0116207 12.158534 2.0136719 12.238281 C 2.1539158 6.8377084 6.5656031 2.5 12 2.5 C 17.438379 2.5 21.854217 6.8439075 21.988281 12.25 C 21.990364 12.166034 22 12.084468 22 12 C 22 6.4771525 17.522847 2 12 2 z M 9 12 C 7.1652678 12 5.5713604 12.888911 4.4667969 14.205078 C 4.2723522 13.545825 4.055017 12.890362 4.015625 12.197266 C 4.0119386 12.297179 4.0000486 12.395237 4 12.496094 L 4 12.498047 L 4 12.5 C 4.001745 13.268005 4.2538023 13.982933 4.4667969 14.705078 C 5.5713604 13.388911 7.1652678 12.5 9 12.5 C 12.178627 12.5 14.807487 15.031601 14.982422 18.169922 C 14.985395 18.113303 14.999925 18.059241 15 18.001953 A 2.0002 2.0002 0 0 0 15 18 C 15 14.709981 12.290019 12 9 12 z M 19.988281 12.279297 C 19.875141 15.562391 17.791811 18.263582 14.890625 19.388672 C 14.851147 19.576003 14.808715 19.762343 14.761719 19.947266 C 17.81544 18.82367 20 15.959953 20 12.5 C 20 12.425472 19.990272 12.353315 19.988281 12.279297 z M 5.0234375 18.267578 C 5.0188561 18.345989 5 18.42044 5 18.5 C 5.0005802 18.723551 5.0209451 18.946494 5.0585938 19.166016 C 5.1203151 19.225662 5.1748735 19.291415 5.2382812 19.349609 C 5.1123401 19.001258 5.0492366 18.63623 5.0234375 18.267578 z M 12.976562 18.277344 C 12.859679 19.919518 11.755771 21.338394 10.162109 21.822266 C 10.441107 21.875593 10.721684 21.913986 11.003906 21.943359 C 12.214275 21.239944 12.998111 19.945054 13 18.5 C 13 18.423749 12.980773 18.352541 12.976562 18.277344 z"/>
 <path style="opacity:0.2" d="M 12,4 C 7.5593682,4 4.0021386,7.5562749 4,11.996094 v 0.002 0.002 c 1.52e-4,0.06689 0.011867,0.131145 0.015625,0.197266 C 4.1742169,7.8987983 7.6602438,4.5 12,4.5 c 4.367439,0 7.87163,3.4417621 7.988281,7.779297 C 19.991499,12.185918 20,12.094287 20,12 20,7.5580328 16.441967,4 12,4 Z M 2.0136719,12.238281 C 2.0113893,12.326181 2,12.411549 2,12.5 2.00499,15.294744 3.179263,17.959883 5.2382812,19.849609 5.1578116,19.627032 5.0984529,19.398426 5.0585938,19.166016 3.1734127,17.344216 2.0810913,14.859511 2.0136719,12.238281 Z M 21.988281,12.25 C 21.854217,17.656092 17.438379,22 12,22 11.667245,21.9987 11.334525,21.97777 11.003906,21.94336 10.740447,22.096472 10.463086,22.230883 10.162109,22.322267 10.767947,22.438065 11.383199,22.497563 12,22.5 c 5.522847,0 10,-4.477153 10,-10 0,-0.08447 -0.0096,-0.166034 -0.01172,-0.25 z M 9,14 c -2.209139,0 -4,1.790861 -4,4 2.331e-4,0.08981 0.017182,0.178195 0.023437,0.267578 C 5.1460675,16.168757 6.8704206,14.5 9,14.5 c 2.132888,0 3.858782,1.673912 3.976562,3.777344 0.0066,-0.09278 0.02332,-0.183245 0.02344,-0.277344 0,-2.209139 -1.790861,-4 -4,-4 z m 5.982422,4.169922 c -0.02302,0.438292 -0.114761,0.860482 -0.220703,1.277344 0.04468,-0.01644 0.0846,-0.04141 0.128906,-0.05859 C 14.951636,19.09916 14.999602,18.805985 15,18.501953 A 2.0002,2.0002 0 0 0 15,18.5 c 0,-0.111392 -0.01145,-0.220099 -0.01758,-0.330078 z"/>
 <circle style="opacity:0.2" cx="17.5" cy="7" r="5.5"/>
 <circle style="fill:#ff6c10" cx="17.5" cy="6.5" r="5.5"/>
 <g transform="matrix(0.50254965,0,0,0.5,-201.54526,-368.34215)">
  <path style="fill:#ffffff" transform="matrix(0.99492657,0,0,1,401.04547,736.68429)" d="m 34.683594,4.00001 c -1.031473,1e-5 -1.89181,0.31871 -2.582032,0.8125 C 30.302119,5.9578787 30.009242,7.6820971 30,9.429698 v 13.355458 c 0.945345,0.484193 1.955834,0.828917 3,1.023438 V 19.867188 19.00001 c 0.682472,0.8102 1.414241,1 2.5,1 2.362204,-0.01548 4.397037,-2.075901 4.5,-4.335938 -1e-5,-1.983019 -0.989184,-3.53695 -2.966797,-4.46289 1.326158,-0.88734 1.990224,-2.025163 1.990235,-3.4140626 -1.1e-5,-1.18825 -0.418291,-2.1036907 -1.25586,-2.7441406 C 36.937738,4.3948386 35.90893,4.00002 34.683594,4.00001 Z m 0.316406,1 c 0.690212,1e-5 0.979696,0.1275712 1.40625,0.6445312 0.434293,0.5169801 0.650381,1.2621552 0.650391,2.234375 -10e-6,1.0879598 -0.275539,2.0955648 -0.826172,3.0214848 -0.612669,-0.18528 -1.124131,-0.277334 -1.535157,-0.277344 -0.659214,1e-5 -0.988301,0.184327 -0.988281,0.554687 -2e-5,0.40897 0.392477,0.613292 1.175781,0.613282 0.372259,10e-6 0.790539,-0.05814 1.25586,-0.173828 1.086857,1.103282 1.685879,2.542155 1.720703,3.736328 -2e-5,1.08796 -0.24189,2.013463 -0.730469,2.777343 C 36.640317,18.887059 36.046972,19.00001 35,19.00001 c -1.085769,0 -1.998047,-0.06179 -1.998047,-1.226562 V 8.539072 C 33.000914,6.00001 34,5.00001 35,5.00001 Z"/>
 </g>
</svg>

<svg xmlns="http://www.w3.org/2000/svg" width="24" height="24"><path style="fill:#e4e4e4" d="M12 2C6.477 2 2 6.477 2 12a10 10 0 0 0 3.238 7.35A4 4 0 0 1 5 18a4 4 0 1 1 8 0 4 4 0 0 1-2.838 3.822A10 10 0 0 0 12 22c5.523 0 10-4.477 10-10S17.523 2 12 2z"/><path style="fill:#263547" d="M12 4c4.442 0 8 3.558 8 8 0 3.46-2.185 6.324-5.238 7.447.12-.47.237-.944.238-1.445A2 2 0 0 0 15 18c0-3.29-2.71-6-6-6-1.835 0-3.429.889-4.533 2.205C4.254 13.483 4.002 12.768 4 12v-.004A7.97 7.97 0 0 1 12 4z"/><path style="opacity:.2;fill:#fff" d="M12 2C6.477 2 2 6.477 2 12c0 .08.012.159.014.238C2.154 6.838 6.566 2.5 12 2.5c5.438 0 9.854 4.344 9.988 9.75.002-.084.012-.166.012-.25 0-5.523-4.477-10-10-10zM9 12c-1.835 0-3.429.889-4.533 2.205-.195-.66-.412-1.315-.451-2.008-.004.1-.016.198-.016.3v.003c.002.768.254 1.483.467 2.205C5.57 13.39 7.165 12.5 9 12.5c3.179 0 5.807 2.532 5.982 5.67.003-.057.018-.11.018-.168A2 2 0 0 0 15 18c0-3.29-2.71-6-6-6zm10.988.28c-.113 3.282-2.196 5.984-5.097 7.109-.04.187-.082.373-.13.558C17.816 18.824 20 15.96 20 12.5c0-.075-.01-.147-.012-.22zM5.023 18.267C5.02 18.346 5 18.42 5 18.5c0 .224.02.446.059.666.061.06.116.125.18.184a3.99 3.99 0 0 1-.216-1.082zm7.954.01a3.99 3.99 0 0 1-2.815 3.544c.28.054.56.092.842.121A3.99 3.99 0 0 0 13 18.5c0-.076-.02-.147-.023-.223z"/><path style="opacity:.2" d="M12 4a7.97 7.97 0 0 0-8 7.996V12c0 .067.012.131.016.197A7.962 7.962 0 0 1 12 4.5a7.963 7.963 0 0 1 7.988 7.78c.003-.094.012-.186.012-.28 0-4.442-3.558-8-8-8zm-9.986 8.238c-.003.088-.014.174-.014.262a10 10 0 0 0 3.238 7.35 3.994 3.994 0 0 1-.18-.684 9.985 9.985 0 0 1-3.044-6.928zm19.974.012C21.854 17.656 17.438 22 12 22a10.007 10.007 0 0 1-.996-.057c-.264.153-.54.288-.842.38A10 10 0 0 0 12 22.5c5.523 0 10-4.477 10-10 0-.084-.01-.166-.012-.25zM9 14a4 4 0 0 0-4 4c0 .09.017.178.023.268C5.146 16.168 6.87 14.5 9 14.5c2.133 0 3.859 1.674 3.977 3.777.006-.092.023-.183.023-.277a4 4 0 0 0-4-4zm5.982 4.17c-.023.438-.114.86-.22 1.277.044-.016.084-.041.129-.058.06-.29.109-.583.109-.887a2 2 0 0 0 0-.002c0-.111-.011-.22-.018-.33z"/><circle style="opacity:.2" cx="17.5" cy="7" r="5.5"/><circle style="fill:#ff6c10" cx="17.5" cy="6.5" r="5.5"/><path style="fill:#fff" transform="matrix(.5 0 0 .5 0 0)" d="M34.684 4a4.357 4.357 0 0 0-2.582.813c-1.8 1.145-2.093 2.87-2.102 4.617v13.355a11 11 0 0 0 3 1.024V19c.682.81 1.414 1 2.5 1 2.362-.015 4.397-2.076 4.5-4.336 0-1.983-.99-3.537-2.967-4.463 1.326-.887 1.99-2.025 1.99-3.414 0-1.188-.418-2.104-1.255-2.744C36.938 4.395 35.908 4 34.684 4zM35 5c.69 0 .98.128 1.406.645.435.517.65 1.262.65 2.234a5.807 5.807 0 0 1-.826 3.021c-.612-.185-1.124-.277-1.535-.277-.659 0-.988.184-.988.555 0 .409.393.613 1.176.613.372 0 .79-.058 1.256-.174 1.087 1.103 1.686 2.542 1.72 3.737 0 1.087-.242 2.013-.73 2.777-.489.756-1.082.869-2.129.869-1.086 0-1.998-.062-1.998-1.227V8.54C33.001 6 34 5 35 5z"/></svg>
